X:5065
T:Farewell to the Creeks
R:jig
C:P.M. J. Robertson, The Gordan Highlander
M:6/8
L:1/8
K:Amix
a |\
"A"e2c c>Bc | "D"d>ef "E7"e2d | "A"c2e "F#m" A>ce | "Bm"e>dc "G"B2a |\
"A"e2c c>Bc | "D"d>ef "E7"e2d | "A"c2e "F#m" A>ce | "G"B3 "A" A2 :|
f |\
"A" e>ce f<ag | "D"f>df "A"e>cA | "A"c2c c<ec | "Bm"d>cd B2f |\
"A" e>ce f<ag | "D"f>df "A"e>cA | "A"c2e "E7"e>dc | "G"B3 "A" A2 :|
a |\
"A"c3 "D"d2f | "A"c<ec "Bm"c>BA | "D"d2f "A"c2e | "F#m"e>dc "G"B2a |\
"A"c3 "D"d2f | "A"c<ec "Bm"c>BA | "D"d2f "A"c2e | "G"B3 "A" A2 :|
e |\
"A"a2e "D"f2a | "A"e2f e>cA | "D" d2f "A"c2e | "F#m"e>dc "G"B2e |\
"A"a2e "D"f2a | "A"e2f e>cA | "A" c2e "F#m"e>dc | "G"B3 "A" A2 :|
